static/img/kroki/2d6aa3544ec529d73219e361ef7608c6.svg

<?xml version="1.0" encoding="us-ascii" standalone="no"?><svg xmlns="http://www.w3.org/2000/svg" xmlns:xlink="http://www.w3.org/1999/xlink" contentStyleType="text/css" height="152px" preserveAspectRatio="none" style="width:664px;height:152px;" version="1.1" viewBox="0 0 664 152" width="664px" zoomAndPan="magnify"><defs/><g><!--class azure_cosmos_db_account--><g id="elem_azure_cosmos_db_account"><rect codeLine="23" fill="#3D176E" height="39.7891" id="azure_cosmos_db_account" rx="2.5" ry="2.5" style="stroke:#000D19;stroke-width:0.5;" width="261" x="7" y="106.79"/><ellipse cx="22" cy="126.6845" fill="#ADD1B2" rx="11" ry="11" style="stroke:#181818;stroke-width:1.0;"/><path d="M24.9688,132.3252 Q24.3906,132.622 23.75,132.7627 Q23.1094,132.9189 22.4063,132.9189 Q19.9063,132.9189 18.5781,131.2783 Q17.2656,129.622 17.2656,126.497 Q17.2656,123.372 18.5781,121.7158 Q19.9063,120.0595 22.4063,120.0595 Q23.1094,120.0595 23.75,120.2158 Q24.4063,120.372 24.9688,120.6689 L24.9688,123.3877 Q24.3438,122.8095 23.75,122.5439 Q23.1563,122.2627 22.5313,122.2627 Q21.1875,122.2627 20.5,123.3408 Q19.8125,124.4033 19.8125,126.497 Q19.8125,128.5908 20.5,129.6689 Q21.1875,130.7314 22.5313,130.7314 Q23.1563,130.7314 23.75,130.4658 Q24.3438,130.1845 24.9688,129.6064 L24.9688,132.3252 Z " fill="#000000"/><text fill="#D9B8FF" font-family="Helvetica" font-size="17" lengthAdjust="spacing" textLength="219" x="41" y="132.5698">azure_cosmos_db_account</text></g><!--class azure_cosmos_db_location--><g id="elem_azure_cosmos_db_location"><rect codeLine="26" fill="#3D176E" height="39.7891" id="azure_cosmos_db_location" rx="2.5" ry="2.5" style="stroke:#000D19;stroke-width:0.5;" width="262" x="177.5" y="7"/><ellipse cx="192.5" cy="26.8945" fill="#ADD1B2" rx="11" ry="11" style="stroke:#181818;stroke-width:1.0;"/><path d="M195.4688,32.5352 Q194.8906,32.832 194.25,32.9727 Q193.6094,33.1289 192.9063,33.1289 Q190.4063,33.1289 189.0781,31.4883 Q187.7656,29.832 187.7656,26.707 Q187.7656,23.582 189.0781,21.9258 Q190.4063,20.2695 192.9063,20.2695 Q193.6094,20.2695 194.25,20.4258 Q194.9063,20.582 195.4688,20.8789 L195.4688,23.5977 Q194.8438,23.0195 194.25,22.7539 Q193.6563,22.4727 193.0313,22.4727 Q191.6875,22.4727 191,23.5508 Q190.3125,24.6133 190.3125,26.707 Q190.3125,28.8008 191,29.8789 Q191.6875,30.9414 193.0313,30.9414 Q193.6563,30.9414 194.25,30.6758 Q194.8438,30.3945 195.4688,29.8164 L195.4688,32.5352 Z " fill="#000000"/><text fill="#D9B8FF" font-family="Helvetica" font-size="17" lengthAdjust="spacing" textLength="220" x="211.5" y="32.7798">azure_cosmos_db_location</text></g><!--class azure_cosmos_db_restorable_account--><g id="elem_azure_cosmos_db_restorable_account"><rect codeLine="29" fill="#3D176E" height="39.7891" id="azure_cosmos_db_restorable_account" rx="2.5" ry="2.5" style="stroke:#000D19;stroke-width:0.5;" width="354" x="303.5" y="106.79"/><ellipse cx="318.5" cy="126.6845" fill="#ADD1B2" rx="11" ry="11" style="stroke:#181818;stroke-width:1.0;"/><path d="M321.4688,132.3252 Q320.8906,132.622 320.25,132.7627 Q319.6094,132.9189 318.9063,132.9189 Q316.4063,132.9189 315.0781,131.2783 Q313.7656,129.622 313.7656,126.497 Q313.7656,123.372 315.0781,121.7158 Q316.4063,120.0595 318.9063,120.0595 Q319.6094,120.0595 320.25,120.2158 Q320.9063,120.372 321.4688,120.6689 L321.4688,123.3877 Q320.8438,122.8095 320.25,122.5439 Q319.6563,122.2627 319.0313,122.2627 Q317.6875,122.2627 317,123.3408 Q316.3125,124.4033 316.3125,126.497 Q316.3125,128.5908 317,129.6689 Q317.6875,130.7314 319.0313,130.7314 Q319.6563,130.7314 320.25,130.4658 Q320.8438,130.1845 321.4688,129.6064 L321.4688,132.3252 Z " fill="#000000"/><text fill="#D9B8FF" font-family="Helvetica" font-size="17" lengthAdjust="spacing" textLength="312" x="337.5" y="132.5698">azure_cosmos_db_restorable_account</text></g><!--link azure_cosmos_db_location to azure_cosmos_db_account--><g id="link_azure_cosmos_db_location_azure_cosmos_db_account"><path codeLine="32" d="M274.72,47.22 C244.74,64.36 206.378,86.2905 176.418,103.4305 " fill="none" id="azure_cosmos_db_location-to-azure_cosmos_db_account" style="stroke:#1A83AF;stroke-width:2.0;"/><polygon fill="#1A83AF" points="171.21,106.41,181.0082,105.4128,175.55,103.9271,177.0356,98.4688,171.21,106.41" style="stroke:#1A83AF;stroke-width:2.0;"/></g><!--link azure_cosmos_db_location to azure_cosmos_db_restorable_account--><g id="link_azure_cosmos_db_location_azure_cosmos_db_restorable_account"><path codeLine="33" d="M342.48,47.22 C372.64,64.36 411.2448,86.3032 441.3748,103.4432 " fill="none" id="azure_cosmos_db_location-to-azure_cosmos_db_restorable_account" style="stroke:#1A83AF;stroke-width:2.0;"/><polygon fill="#1A83AF" points="446.59,106.41,440.745,98.4831,442.244,103.9377,436.7894,105.4367,446.59,106.41" style="stroke:#1A83AF;stroke-width:2.0;"/></g><!--SRC=[dP31JW8n48Rl-nHDE9EmRXIucAmaH2_4Y3TZo6mxXORT3faE4Z2-ko1goguBYTV-N__vPXREeC9g9LjLOLKWXoGidLy1GwLoPjgCg2HM7Ml1PlrwE2Ol5u49LAZkiNn3SHhgnFF2wQN74DHL5Ds1NiwPrjuSwuN1Xts4NY9gL488kGYxOYqOoPXXCR2sJjPBEvb9-pVOm8WDyZVIw_LCEgmZ5qUTtVkNcBeTgZG-seG46vgD4L_KMSi34Kas5lt9MnqVmHZdv-ewUdiwEh57FdcVBi3Gva1RA4Cy9WWoacnNE6fiXSE1iVq_uOSsED67qodOhHbdca95OMQA6MYzPqMz9yb72rAI1d7app6CGOYXAF6qiRMh-z99yq6MZr-xjsrI__pTT4a-0G00]--></g></svg>

<svg xmlns="http://www.w3.org/2000/svg" width="664" height="152" viewBox="0 0 664 152"><rect width="261" height="39.789" x="7" y="106.79" fill="#3D176E" rx="2.5" ry="2.5" style="stroke:#000d19;stroke-width:.5"/><circle cx="22" cy="126.684" r="11" fill="#ADD1B2" style="stroke:#181818;stroke-width:1"/><path d="M24.969 132.325q-.578.297-1.219.438-.64.156-1.344.156-2.5 0-3.828-1.64-1.312-1.657-1.312-4.782t1.312-4.781q1.328-1.656 3.828-1.656.703 0 1.344.156.656.156 1.219.453v2.719q-.625-.579-1.219-.844-.594-.281-1.219-.281-1.343 0-2.031 1.078-.687 1.062-.687 3.156t.687 3.172q.688 1.062 2.031 1.062.625 0 1.219-.265.594-.281 1.219-.86z"/><text x="41" y="132.57" fill="#D9B8FF" font-family="Helvetica" font-size="17" textLength="219">azure_cosmos_db_account</text><rect width="262" height="39.789" x="177.5" y="7" fill="#3D176E" rx="2.5" ry="2.5" style="stroke:#000d19;stroke-width:.5"/><circle cx="192.5" cy="26.895" r="11" fill="#ADD1B2" style="stroke:#181818;stroke-width:1"/><path d="M195.469 32.535q-.578.297-1.219.438-.64.156-1.344.156-2.5 0-3.828-1.64-1.312-1.657-1.312-4.782t1.312-4.781q1.328-1.656 3.828-1.656.703 0 1.344.156.656.156 1.219.453v2.719q-.625-.578-1.219-.844-.594-.281-1.219-.281-1.344 0-2.031 1.078-.687 1.062-.687 3.156t.687 3.172q.688 1.062 2.031 1.062.625 0 1.219-.265.594-.281 1.219-.86z"/><text x="211.5" y="32.78" fill="#D9B8FF" font-family="Helvetica" font-size="17" textLength="220">azure_cosmos_db_location</text><rect width="354" height="39.789" x="303.5" y="106.79" fill="#3D176E" rx="2.5" ry="2.5" style="stroke:#000d19;stroke-width:.5"/><circle cx="318.5" cy="126.684" r="11" fill="#ADD1B2" style="stroke:#181818;stroke-width:1"/><path d="M321.469 132.325q-.578.297-1.219.438-.64.156-1.344.156-2.5 0-3.828-1.64-1.312-1.657-1.312-4.782t1.312-4.781q1.328-1.656 3.828-1.656.703 0 1.344.156.656.156 1.219.453v2.719q-.625-.579-1.219-.844-.594-.281-1.219-.281-1.344 0-2.031 1.078-.687 1.062-.687 3.156t.687 3.172q.688 1.062 2.031 1.062.625 0 1.219-.265.594-.281 1.219-.86z"/><text x="337.5" y="132.57" fill="#D9B8FF" font-family="Helvetica" font-size="17" textLength="312">azure_cosmos_db_restorable_account</text><path fill="none" d="M274.72 47.22c-29.98 17.14-68.342 39.07-98.302 56.21" style="stroke:#1a83af;stroke-width:2"/><path fill="#1A83AF" d="m171.21 106.41 9.798-.997-5.458-1.486 1.486-5.458z" style="stroke:#1a83af;stroke-width:2"/><path fill="none" d="M342.48 47.22c30.16 17.14 68.765 39.083 98.895 56.223" style="stroke:#1a83af;stroke-width:2"/><path fill="#1A83AF" d="m446.59 106.41-5.845-7.927 1.499 5.455-5.455 1.499z" style="stroke:#1a83af;stroke-width:2"/></svg>
